remix/Logos/product-hunt-line.svg

<svg viewBox="0 0 24 24" fill="currentColor" xmlns="http://www.w3.org/2000/svg"><path d="M12.001 22C6.47813 22 2.00098 17.5228 2.00098 12C2.00098 6.47715 6.47813 2 12.001 2C17.5238 2 22.001 6.47715 22.001 12C22.001 17.5228 17.5238 22 12.001 22ZM12.001 20C16.4193 20 20.001 16.4183 20.001 12C20.001 7.58172 16.4193 4 12.001 4C7.5827 4 4.00098 7.58172 4.00098 12C4.00098 16.4183 7.5827 20 12.001 20ZM13.3345 12C14.1629 12 14.8345 11.3284 14.8345 10.5C14.8345 9.67157 14.1629 9 13.3345 9H10.501V12H13.3345ZM13.3345 7C15.2675 7 16.8345 8.567 16.8345 10.5C16.8345 12.433 15.2675 14 13.3345 14H10.501V17H8.50098V7H13.3345Z"/></svg>

<svg viewBox="0 0 24 24" xmlns="http://www.w3.org/2000/svg"><path fill="none" d="M0 0h24v24H0Z"/><path d="M12 22C6.477 22 2 17.523 2 12 2 6.477 6.477 2 12 2c5.523 0 10 4.477 10 10s-4.477 10-10 10Zm0-2v0c4.41 0 8-3.59 8-8 0-4.42-3.59-8-8-8v0c-4.42 0-8 3.58-8 8 0 4.41 3.58 8 8 8Zm1.33-8v0c.82 0 1.5-.68 1.5-1.5 0-.83-.68-1.5-1.5-1.5h-2.84v3h2.83Zm0-5v0c1.93 0 3.5 1.56 3.5 3.5 0 1.93-1.57 3.5-3.5 3.5h-2.84v3h-2V7h4.834Z"/></svg>
